flaticon/household/chair.svg

<svg xmlns="http://www.w3.org/2000/svg" width="32" height="32" viewBox="0 0 24 24">
    <path d="M 17.601562 10.972656 L 17.601562 7.132812 C 18.339844 6.375 18.800781 5.339844 18.800781 4.199219 C 18.800781 1.882812 16.914062 0 14.601562 0 L 9.398438 0 C 7.085938 0 5.199219 1.882812 5.199219 4.199219 C 5.199219 5.339844 5.660156 6.375 6.398438 7.132812 L 6.398438 10.972656 C 5.144531 11.535156 4.398438 12.308594 4.398438 13.199219 L 4.40625 13.296875 C 4.402344 13.332031 4.398438 13.363281 4.398438 13.398438 C 4.398438 14.179688 4.902344 14.839844 5.601562 15.089844 L 5.601562 23.601562 C 5.601562 23.820312 5.777344 24 6 24 C 6.222656 24 6.398438 23.820312 6.398438 23.601562 L 6.398438 16.800781 L 7.199219 16.800781 L 7.199219 22.800781 C 7.199219 23.019531 7.378906 23.199219 7.601562 23.199219 C 7.820312 23.199219 8 23.019531 8 22.800781 L 8 16.800781 L 16 16.800781 L 16 22.800781 C 16 23.019531 16.179688 23.199219 16.398438 23.199219 C 16.621094 23.199219 16.800781 23.019531 16.800781 22.800781 L 16.800781 16.800781 L 17.601562 16.800781 L 17.601562 23.601562 C 17.601562 23.820312 17.777344 24 18 24 C 18.222656 24 18.398438 23.820312 18.398438 23.601562 L 18.398438 15.09375 C 19.039062 14.867188 19.511719 14.292969 19.589844 13.601562 L 19.601562 13.199219 C 19.601562 12.308594 18.855469 11.539062 17.601562 10.972656 Z M 9.398438 0.800781 L 14.601562 0.800781 C 16.476562 0.800781 18 2.324219 18 4.199219 C 18 6.074219 16.476562 7.601562 14.601562 7.601562 L 9.398438 7.601562 C 7.523438 7.601562 6 6.074219 6 4.199219 C 6 2.324219 7.523438 0.800781 9.398438 0.800781 Z M 7.199219 7.769531 C 7.839844 8.167969 8.59375 8.398438 9.398438 8.398438 L 14.601562 8.398438 C 15.40625 8.398438 16.160156 8.167969 16.800781 7.769531 L 16.800781 10.664062 C 15.519531 10.246094 13.871094 10 12 10 C 10.128906 10 8.480469 10.246094 7.199219 10.664062 Z M 6.398438 16 L 6.398438 15.199219 L 7.199219 15.199219 L 7.199219 16 Z M 8 16 L 8 15.199219 L 16 15.199219 L 16 16 Z M 16.800781 16 L 16.800781 15.199219 L 17.601562 15.199219 L 17.601562 16 Z M 17.800781 14.398438 L 6.199219 14.398438 C 5.648438 14.398438 5.199219 13.953125 5.199219 13.398438 C 5.199219 13.359375 5.207031 13.316406 5.214844 13.257812 L 5.246094 12.945312 C 5.601562 11.976562 7.925781 10.800781 12 10.800781 C 15.996094 10.800781 18.308594 11.929688 18.730469 12.890625 L 18.785156 13.277344 C 18.792969 13.316406 18.800781 13.359375 18.800781 13.398438 C 18.800781 13.953125 18.351562 14.398438 17.800781 14.398438 Z M 17.800781 14.398438"/>
    <path d="M16.800781 12.800781L11.199219 12.800781C10.980469 12.800781 10.800781 12.980469 10.800781 13.199219 10.800781 13.421875 10.980469 13.601562 11.199219 13.601562L16.800781 13.601562C17.019531 13.601562 17.199219 13.421875 17.199219 13.199219 17.199219 12.980469 17.019531 12.800781 16.800781 12.800781zM8.800781 12.800781L7.199219 12.800781C6.980469 12.800781 6.800781 12.980469 6.800781 13.199219 6.800781 13.421875 6.980469 13.601562 7.199219 13.601562L8.800781 13.601562C9.019531 13.601562 9.199219 13.421875 9.199219 13.199219 9.199219 12.980469 9.019531 12.800781 8.800781 12.800781zM8.800781 12.800781"/>
</svg>

<svg xmlns="http://www.w3.org/2000/svg" width="32" height="32" viewBox="0 0 24 24">
    <path d="M17.602 10.973v-3.84A4.196 4.196 0 0 0 18.8 4.199C18.8 1.883 16.914 0 14.6 0H9.399A4.205 4.205 0 0 0 5.2 4.2c0 1.14.461 2.175 1.2 2.933v3.84c-1.254.562-2 1.336-2 2.226l.007.098c-.004.035-.008.066-.008.101a1.8 1.8 0 0 0 1.204 1.692v8.512a.398.398 0 1 0 .796 0V16.8H7.2v6a.401.401 0 0 0 .801 0v-6h8v6a.4.4 0 0 0 .8 0v-6h.802v6.8a.398.398 0 1 0 .796 0v-8.507c.641-.227 1.114-.801 1.192-1.492l.012-.403c0-.89-.747-1.66-2-2.226zM9.398.8h5.204a3.4 3.4 0 0 1 0 6.8H9.398a3.4 3.4 0 0 1 0-6.8zM7.2 7.77c.64.398 1.395.628 2.2.628h5.203c.804 0 1.558-.23 2.199-.628v2.894C15.52 10.246 13.87 10 12 10s-3.52.246-4.8.664zM6.4 16v-.8h.8v.8zM8 16v-.8h8v.8zm8.8 0v-.8h.802v.8zm1-1.602H6.2a1 1 0 0 1-1-1c0-.039.007-.082.015-.14l.031-.313c.356-.968 2.68-2.144 6.754-2.144 3.996 0 6.309 1.129 6.73 2.09l.055.386c.008.04.016.082.016.121a1 1 0 0 1-1 1zm0 0"/>
    <path d="M16.8 12.8h-5.6a.4.4 0 0 0 0 .802h5.6a.401.401 0 0 0 0-.801zm0 0M8.8 12.8H7.2a.4.4 0 0 0 0 .802h1.6a.401.401 0 0 0 0-.801zm0 0"/>
</svg>
